assets/landing/benefits/flexible.svg

<svg width="40" height="40" viewBox="0 0 40 40" fill="none" xmlns="http://www.w3.org/2000/svg">
<g clip-path="url(#clip0_51_113)">
<path d="M19.115 0.365037C19.2311 0.248629 19.3691 0.156272 19.5209 0.0932559C19.6728 0.0302397 19.8356 -0.00219727 20 -0.00219727C20.1644 -0.00219727 20.3272 0.0302397 20.4791 0.0932559C20.6309 0.156272 20.7689 0.248629 20.885 0.365037L25.5175 5.00004H35C36.3261 5.00004 37.5979 5.52682 38.5355 6.4645C39.4732 7.40218 40 8.67395 40 10V32.5C40 33.8261 39.4732 35.0979 38.5355 36.0356C37.5979 36.9733 36.3261 37.5 35 37.5H5C3.67392 37.5 2.40215 36.9733 1.46447 36.0356C0.526784 35.0979 0 33.8261 0 32.5V10C0 8.67395 0.526784 7.40218 1.46447 6.4645C2.40215 5.52682 3.67392 5.00004 5 5.00004H14.4825L19.115 0.365037ZM2.5 17.5V25H37.5V17.5H2.5ZM37.5 15V10C37.5 9.337 37.2366 8.70111 36.7678 8.23227C36.2989 7.76343 35.663 7.50004 35 7.50004H25.5175C24.8545 7.4999 24.2187 7.23641 23.75 6.76754L20 3.01754L16.25 6.76754C15.7813 7.23641 15.1455 7.4999 14.4825 7.50004H5C4.33696 7.50004 3.70107 7.76343 3.23223 8.23227C2.76339 8.70111 2.5 9.337 2.5 10V15H37.5ZM37.5 27.5H2.5V32.5C2.5 33.1631 2.76339 33.799 3.23223 34.2678C3.70107 34.7366 4.33696 35 5 35H35C35.663 35 36.2989 34.7366 36.7678 34.2678C37.2366 33.799 37.5 33.1631 37.5 32.5V27.5ZM5 11.25C5 10.9185 5.1317 10.6006 5.36612 10.3662C5.60054 10.1317 5.91848 10 6.25 10H26.25C26.5815 10 26.8995 10.1317 27.1339 10.3662C27.3683 10.6006 27.5 10.9185 27.5 11.25C27.5 11.5816 27.3683 11.8995 27.1339 12.1339C26.8995 12.3683 26.5815 12.5 26.25 12.5H6.25C5.91848 12.5 5.60054 12.3683 5.36612 12.1339C5.1317 11.8995 5 11.5816 5 11.25ZM5 21.25C5 20.9185 5.1317 20.6006 5.36612 20.3662C5.60054 20.1317 5.91848 20 6.25 20H33.75C34.0815 20 34.3995 20.1317 34.6339 20.3662C34.8683 20.6006 35 20.9185 35 21.25C35 21.5816 34.8683 21.8995 34.6339 22.1339C34.3995 22.3683 34.0815 22.5 33.75 22.5H6.25C5.91848 22.5 5.60054 22.3683 5.36612 22.1339C5.1317 21.8995 5 21.5816 5 21.25ZM5 31.25C5 30.9185 5.1317 30.6006 5.36612 30.3662C5.60054 30.1317 5.91848 30 6.25 30H21.25C21.5815 30 21.8995 30.1317 22.1339 30.3662C22.3683 30.6006 22.5 30.9185 22.5 31.25C22.5 31.5816 22.3683 31.8995 22.1339 32.1339C21.8995 32.3683 21.5815 32.5 21.25 32.5H6.25C5.91848 32.5 5.60054 32.3683 5.36612 32.1339C5.1317 31.8995 5 31.5816 5 31.25Z" fill="#03E2B3"/>
</g>
<defs>
<clipPath id="clip0_51_113">
<rect width="40" height="40" fill="white"/>
</clipPath>
</defs>
</svg>

<svg xmlns="http://www.w3.org/2000/svg" fill="#03E2B3" viewBox="0 0 40 40">
  <path stroke="none" d="M19.11.37a1.25 1.25 0 0 1 1.78 0L25.52 5H35a5 5 0 0 1 5 5v22.5a5 5 0 0 1-5 5H5a5 5 0 0 1-5-5V10a5 5 0 0 1 5-5h9.48L19.11.37ZM2.5 17.5V25h35v-7.5h-35Zm35-2.5v-5A2.5 2.5 0 0 0 35 7.5h-9.48a2.5 2.5 0 0 1-1.77-.73L20 3.02l-3.75 3.75a2.5 2.5 0 0 1-1.77.73H5A2.5 2.5 0 0 0 2.5 10v5h35Zm0 12.5h-35v5A2.5 2.5 0 0 0 5 35h30a2.5 2.5 0 0 0 2.5-2.5v-5ZM5 11.25A1.25 1.25 0 0 1 6.25 10h20a1.25 1.25 0 1 1 0 2.5h-20A1.25 1.25 0 0 1 5 11.25Zm0 10A1.25 1.25 0 0 1 6.25 20h27.5a1.25 1.25 0 1 1 0 2.5H6.25A1.25 1.25 0 0 1 5 21.25Zm0 10A1.25 1.25 0 0 1 6.25 30h15a1.25 1.25 0 1 1 0 2.5h-15A1.25 1.25 0 0 1 5 31.25Z"/>
</svg>
